X: 28238
T: Mrs. Grant Of Laggan
R: strathspey
M: 4/4
K: Adorian
e|d/c/B/A/ G>B A<A,A,>B,|C>DE<F {F}G2 A<B|(3ABc (3Bcd A<A,A,>B,|C>DE<G {G}A2A<e|
d/c/B/A/G>B A<EG>D|E<GB,<A, A,<G,(3G,A,B,|(3CB,A, (3D^CB, (3ED=C (3B,CD|(3Edc (3BA^G A2A>B|
A<Bc>B A/B/c/B/ A>D|G<BG<D B,2G,>B|A<ec>B A/B/c/d/ e<a|c>AB<G A2A<e|
d/c/B/A/ G>B A<EG>D|E<GB,<A, A,<G,(3G,A,B,|(3CB,A, (3D^CB, (3ED=C (3B,CD|(3Edc (3BA^G A2A<e|

